brand-logos/80px_Unifi_Protect.svg

<svg width="80" height="80" viewBox="0 0 80 80" fill="none" xmlns="http://www.w3.org/2000/svg">
<path d="M47 7H33L27 10L24 13L21 19V67L28 74H52L59 67V19L56 13L53 10L47 7Z" fill="white" stroke="black" stroke-width="4" stroke-linejoin="round"/>
<path d="M31.5 19.5L35.5 15.5H44.5L48.5 19.5V28.5L44.5 32.5H35.5L31.5 28.5V19.5Z" stroke="black" stroke-width="3" stroke-linecap="round" stroke-linejoin="round"/>
<path d="M39.5 40.5V44.5" stroke="black" stroke-width="3" stroke-linecap="round" stroke-linejoin="round"/>
</svg>

<?xml version="1.0" encoding="UTF-8" standalone="no"?>
<svg width="80" height="80" version="1.1" viewBox="0 0 80 80" xml:space="preserve" id="svg7"
  xmlns="http://www.w3.org/2000/svg" xmlns:svg="http://www.w3.org/2000/svg">
  <path style="fill:#ffffff;stroke:#000000;stroke-width:6;stroke-stroke-linecap:round;stroke-linejoin:round;stroke-dasharray:none"
    d="M 47,7 H 33 l -6,3 -3,3 -3,6 v 48 l 7,7 h 24 l 7,-7 V 19 l -3,-6 -3,-3 z" />
  <path style="fill:none;stroke:#000000;stroke-width:4;stroke-linecap:round;stroke-linejoin:round;stroke-dasharray:none"
    d="m 32,20 4,-4 h 8 l 4,4 v 8 l -4,4 h -8 l -4,-4 z" />
  <path style="fill:none;stroke:#000000;stroke-width:4;stroke-linecap:round;stroke-linejoin:round;stroke-dasharray:none"
    d="m 40,41 v 4" />
</svg>
